_includes/icons/ios-google-plus-circled.svg

<svg fill="#666" height="50" viewBox="0 0 50 50" width="50" xmlns="http://www.w3.org/2000/svg"><path d="m25 2c-12.690705 0-23 10.309295-23 23s10.309295 23 23 23 23-10.309295 23-23-10.309295-23-23-23zm0 2c11.609824 0 21 9.390176 21 21s-9.390176 21-21 21-21-9.390176-21-21 9.390176-21 21-21zm-5 11c-5.511334 0-10 4.488666-10 10s4.488666 10 10 10 10-4.488666 10-10c0-.375475-.020677-.746123-.060547-1.109375l-.097656-.890625h-8.841797v2h7c0 4.430666-3.569334 8-8 8s-8-3.569334-8-8 3.569334-8 8-8c1.649667 0 3.173917.49591 4.445312 1.347656v.001953c.311669.208074.608846.439037.888672.689453l1.333985-1.492187c-.348174-.311629-.718997-.599402-1.111328-.861328-1.588605-1.064254-3.504308-1.685547-5.556641-1.685547zm16 5v3h-3v2h3v3h2v-3h3v-2h-3v-3z"/></svg>

<svg xmlns="http://www.w3.org/2000/svg" viewBox="0 0 50 50" width="50" height="50" fill="#666"><path d="M 25 2 C 12.309295 2 2 12.309295 2 25 C 2 37.690705 12.309295 48 25 48 C 37.690705 48 48 37.690705 48 25 C 48 12.309295 37.690705 2 25 2 z M 25 4 C 36.609824 4 46 13.390176 46 25 C 46 36.609824 36.609824 46 25 46 C 13.390176 46 4 36.609824 4 25 C 4 13.390176 13.390176 4 25 4 z M 20 15 C 14.488666 15 10 19.488666 10 25 C 10 30.511334 14.488666 35 20 35 C 25.511334 35 30 30.511334 30 25 C 30 24.624525 29.979323 24.253877 29.939453 23.890625 L 29.841797 23 L 21 23 L 21 25 L 28 25 C 28 29.430666 24.430666 33 20 33 C 15.569334 33 12 29.430666 12 25 C 12 20.569334 15.569334 17 20 17 C 21.649667 17 23.173917 17.49591 24.445312 18.347656 L 24.445312 18.349609 C 24.756981 18.557683 25.054158 18.788646 25.333984 19.039062 L 26.667969 17.546875 C 26.319795 17.235246 25.948972 16.947473 25.556641 16.685547 C 23.968036 15.621293 22.052333 15 20 15 z M 36 20 L 36 23 L 33 23 L 33 25 L 36 25 L 36 28 L 38 28 L 38 25 L 41 25 L 41 23 L 38 23 L 38 20 L 36 20 z"/></svg>
